casedrop/img/upgrade/icons/ak-47.svg

<svg width="418" height="419" fill="none" xmlns="http://www.w3.org/2000/svg"><path d="M187.833 218.996h24.541a96.618 96.618 0 01-40.756 59.666l-13.204-19.771a72.826 72.826 0 0029.419-39.895zm87.763-25.966a2.177 2.177 0 01.678 1.601v15.239a2.756 2.756 0 01-1.581 2.558c-2.673 1.167-2.408 4.919.319 9.078l9.831 15.036a5.505 5.505 0 01.786 4.15 5.517 5.517 0 01-2.38 3.489l-2.096 1.357a8.87 8.87 0 01-6.684 1.264 8.887 8.887 0 01-5.617-3.835l-10.422-15.938a5.919 5.919 0 00-4.953-2.714h-22.22a7.144 7.144 0 01-7.145-7.144v-9.031h-41.55l-.001-26.353 27.065.001v3.236h57.671s6.134 6.039 8.298 8.006h.001zm-24.426 22.791a5.573 5.573 0 00-1.636-3.949 5.581 5.581 0 00-3.948-1.636h-8.746a5.581 5.581 0 00-5.159 3.448 5.592 5.592 0 00-.425 2.137l.001 1.309a5.58 5.58 0 003.447 5.159 5.573 5.573 0 002.137.425h8.772a5.585 5.585 0 005.557-5.584v-1.309zm106.855 24.757c.62.224 1.274.339 1.934.34h4.2a2.89 2.89 0 002.89-2.89v-34.875a4.563 4.563 0 00-4.349-4.559l-54.32-2.585h-.298a6.297 6.297 0 00-2.945.732l-1.92 1.011a6.402 6.402 0 01-4.214.624l-11.873-2.313v19.066l70.895 25.449zM90.613 195.622a2.715 2.715 0 012.713-2.713h12.824v-3.576H89.065l-2.605 4.62a8.733 8.733 0 01-7.626 4.431H57.326l-4.451-11.887a3.92 3.92 0 00-3.67-2.544l-.625-.001c-2.219 0-4.288 1.798-4.288 4.017v12.504H38.92v5.232h5.38v2.442h61.851v-9.811H93.326a2.714 2.714 0 01-2.713-2.714zm26.393-6.432l-.001 15.165a4.151 4.151 0 003.793 4.138l46.382 4.03a4.155 4.155 0 004.161-2.466 4.148 4.148 0 00.351-1.672v-19.208a4.15 4.15 0 00-4.153-4.152l-46.381-.001a4.148 4.148 0 00-3.837 2.564 4.16 4.16 0 00-.316 1.589l.001.013z" fill="#313754"/></svg>

<svg width="418" height="419" viewBox="0 0 418 419" fill="none" xmlns="http://www.w3.org/2000/svg">
<path d="M187.833 218.996H212.374C207.017 243.407 192.409 264.793 171.618 278.662L158.414 258.891C172.584 249.442 182.993 235.325 187.833 218.996ZM275.596 193.03C275.813 193.236 275.985 193.484 276.102 193.76C276.219 194.035 276.277 194.332 276.274 194.631L276.274 209.87C276.286 210.404 276.143 210.929 275.862 211.383C275.582 211.837 275.176 212.2 274.693 212.428C272.02 213.595 272.285 217.347 275.012 221.506L284.843 236.542C285.241 237.148 285.514 237.827 285.649 238.539C285.784 239.251 285.777 239.982 285.629 240.692C285.481 241.401 285.195 242.075 284.786 242.673C284.378 243.272 283.855 243.784 283.249 244.181L281.153 245.538C280.177 246.178 279.084 246.618 277.937 246.835C276.79 247.052 275.612 247.041 274.469 246.802C273.327 246.563 272.243 246.102 271.279 245.444C270.315 244.786 269.49 243.944 268.852 242.967L258.43 227.029C257.896 226.2 257.163 225.518 256.298 225.044C255.433 224.57 254.463 224.32 253.477 224.315L231.257 224.315C229.362 224.315 227.545 223.562 226.205 222.222C224.865 220.883 224.112 219.065 224.112 217.171L224.112 208.14L182.562 208.14L182.561 181.787L209.626 181.788V185.024L267.297 185.024C267.297 185.024 273.431 191.063 275.595 193.03L275.596 193.03ZM251.17 215.821C251.17 215.087 251.026 214.361 250.745 213.684C250.464 213.006 250.053 212.39 249.534 211.872C249.016 211.353 248.4 210.942 247.723 210.661C247.045 210.381 246.319 210.236 245.586 210.236L236.84 210.236C236.107 210.236 235.381 210.381 234.703 210.661C234.026 210.942 233.41 211.353 232.892 211.872C232.373 212.39 231.962 213.006 231.681 213.684C231.401 214.361 231.256 215.087 231.256 215.821L231.257 217.13C231.257 217.863 231.401 218.589 231.682 219.267C231.962 219.944 232.374 220.56 232.892 221.078C233.411 221.597 234.026 222.008 234.704 222.289C235.381 222.57 236.107 222.714 236.841 222.714L245.613 222.714C247.089 222.707 248.503 222.115 249.544 221.069C250.585 220.023 251.17 218.606 251.17 217.13V215.821ZM358.025 240.578C358.645 240.802 359.299 240.917 359.959 240.918L364.159 240.918C364.925 240.918 365.66 240.613 366.202 240.071C366.744 239.529 367.049 238.794 367.049 238.028L367.049 203.153C367.049 201.98 366.597 200.852 365.787 200.003C364.977 199.154 363.872 198.649 362.7 198.594L308.38 196.009H308.082C307.055 196.009 306.044 196.261 305.137 196.741L303.217 197.752C301.925 198.435 300.438 198.655 299.003 198.376L287.13 196.063L287.13 215.129L358.025 240.578ZM90.6126 195.622C90.6126 194.903 90.8985 194.212 91.4075 193.703C91.9164 193.194 92.6066 192.909 93.3263 192.909L106.15 192.909L106.15 189.333L89.0655 189.333L86.4603 193.953C85.6969 195.302 84.588 196.423 83.2477 197.202C81.9074 197.981 80.384 198.389 78.8339 198.384L57.3257 198.384L52.875 186.497C52.5947 185.749 52.0931 185.106 51.4373 184.651C50.7814 184.196 50.0025 183.953 49.2045 183.953L48.5803 183.952C46.3613 183.952 44.2921 185.75 44.2921 187.969L44.2921 200.473L38.9186 200.473L38.9186 205.705L44.2987 205.705L44.2991 208.147L106.15 208.147L106.15 198.336L93.3263 198.336C92.6066 198.336 91.9164 198.05 91.4074 197.541C90.8985 197.032 90.6126 196.342 90.6126 195.622ZM117.006 189.19L117.005 204.355C117.005 205.394 117.394 206.396 118.097 207.162C118.799 207.928 119.763 208.403 120.798 208.493L167.18 212.523C167.753 212.573 168.331 212.503 168.876 212.318C169.421 212.132 169.922 211.836 170.346 211.447C170.771 211.057 171.109 210.584 171.341 210.057C171.573 209.53 171.692 208.961 171.692 208.385L171.692 189.177C171.692 188.076 171.254 187.019 170.475 186.241C169.697 185.462 168.641 185.025 167.539 185.025L121.158 185.024C120.613 185.024 120.073 185.131 119.569 185.34C119.065 185.549 118.607 185.855 118.222 186.24C117.836 186.626 117.53 187.084 117.321 187.588C117.113 188.091 117.005 188.631 117.005 189.177L117.006 189.19Z" fill="#313754"/>
</svg>
